img/image/polygon-icon.svg

<svg width="64" height="72" viewBox="0 0 64 72" fill="none" xmlns="http://www.w3.org/2000/svg">
<path d="M29 1.73205C30.8564 0.660255 33.1436 0.660254 35 1.73205L60.1769 16.268C62.0333 17.3397 63.1769 19.3205 63.1769 21.4641V50.5359C63.1769 52.6795 62.0333 54.6603 60.1769 55.7321L35 70.268C33.1436 71.3397 30.8564 71.3397 29 70.268L3.82309 55.7321C1.96668 54.6603 0.823086 52.6795 0.823086 50.5359V21.4641C0.823086 19.3205 1.96668 17.3397 3.82309 16.268L29 1.73205Z" fill="#FFB800"/>
</svg>

<svg width="64" height="72" fill="none" xmlns="http://www.w3.org/2000/svg"><path d="M29 1.732a6 6 0 0 1 6 0l25.177 14.536a6 6 0 0 1 3 5.196v29.072a6 6 0 0 1-3 5.196L35 70.268a6 6 0 0 1-6 0L3.823 55.732a6 6 0 0 1-3-5.196V21.464a6 6 0 0 1 3-5.196L29 1.732Z" fill="#FFB800"/></svg>
